X:54
T:Freedom And Liberty. JBs.054
T:Swaggering Boney,aka. JBs.054
R:Jig
S:Jas.Blackshaw MS, 1837, N.Shropshire
Z:T. Weatherall 2006
M:6/8
L:1/8
Q:3/8=120
A:North Shropshire
K:G
d|BGB dBd|ede d2f|gfg efg|agf g2:|!
|:g|fga afd|afd d2B|ded dcB|cAB c3|!
B2 d BGB|c2e cAc|Bcd efg|agf g2:|

